assets/icons/qvision/slideshow.svg

<svg xmlns="http://www.w3.org/2000/svg" height="24" viewBox="0 0 24 24" width="24"><path d="M0 0h24v24H0z" fill="none"/><path d="M10 8v8l5-4-5-4zm9-5H5c-1.1 0-2 .9-2 2v14c0 1.1.9 2 2 2h14c1.1 0 2-.9 2-2V5c0-1.1-.9-2-2-2zm0 16H5V5h14v14z"/></svg>

<svg width="24" height="24" viewBox="0 0 24 24" fill="none" xmlns="http://www.w3.org/2000/svg">
<g clip-path="url(#clip0_147_3719)">
<path d="M10 8V16L15 12L10 8ZM19 3H5C3.9 3 3 3.9 3 5V19C3 20.1 3.9 21 5 21H19C20.1 21 21 20.1 21 19V5C21 3.9 20.1 3 19 3ZM19 19H5V5H19V19Z" fill="#323232"/>
</g>
<defs>
<clipPath id="clip0_147_3719">
<rect width="24" height="24" fill="white"/>
</clipPath>
</defs>
</svg>
